X: 43658
T: Zuppa Inglese
R: jig
M: 6/8
K: Gmajor
GAG GAB|cBc cde|d2B GAB|A2G E2D|
GAG GAB|cBc cde|d2B GAB|A2A A3:|
gdB fdA|ecG dBG|cAF BGD|DFA GBd|
gdB fdA|ecG dBG|cAF BGD|DFA G3:|
A3 B3|c3 ^c3|[fd][fd][fd] [g2d2][fd]|[g2d2][fd] z3|
A3 B3|c3 ^c3|d2A F2A|D3 z3|
A3 B3|c3 ^c3|[fd][fd][fd] [g2d2][fd]|[g2d2][fd] z3|
A3 B3|[cG][cG][cG] [cG][cG][cG]|[cG][cG][cG] [cG][cG][cG]|[c2G2]z z3|

